static/img/kroki/26f063d7e1f3646517b5b858c93c302b.svg

<?xml version="1.0" encoding="us-ascii" standalone="no"?><svg xmlns="http://www.w3.org/2000/svg" xmlns:xlink="http://www.w3.org/1999/xlink" contentStyleType="text/css" height="927px" preserveAspectRatio="none" style="width:714px;height:927px;" version="1.1" viewBox="0 0 714 927" width="714px" zoomAndPan="magnify"><defs/><g><!--class azure_compute_capacity_reservation_group--><g id="elem_azure_compute_capacity_reservation_group"><rect codeLine="23" fill="#3D176E" height="126.6797" id="azure_compute_capacity_reservation_group" rx="2.5" ry="2.5" style="stroke:#000D19;stroke-width:0.5;" width="700" x="7" y="660.14"/><ellipse cx="164.75" cy="680.0345" fill="#ADD1B2" rx="11" ry="11" style="stroke:#181818;stroke-width:1.0;"/><path d="M167.7188,685.6752 Q167.1406,685.972 166.5,686.1127 Q165.8594,686.2689 165.1563,686.2689 Q162.6563,686.2689 161.3281,684.6283 Q160.0156,682.972 160.0156,679.847 Q160.0156,676.722 161.3281,675.0658 Q162.6563,673.4095 165.1563,673.4095 Q165.8594,673.4095 166.5,673.5658 Q167.1563,673.722 167.7188,674.0189 L167.7188,676.7377 Q167.0938,676.1595 166.5,675.8939 Q165.9063,675.6127 165.2813,675.6127 Q163.9375,675.6127 163.25,676.6908 Q162.5625,677.7533 162.5625,679.847 Q162.5625,681.9408 163.25,683.0189 Q163.9375,684.0814 165.2813,684.0814 Q165.9063,684.0814 166.5,683.8158 Q167.0938,683.5345 167.7188,682.9564 L167.7188,685.6752 Z " fill="#000000"/><text fill="#D9B8FF" font-family="Helvetica" font-size="17" lengthAdjust="spacing" textLength="366" x="190.25" y="685.9198">azure_compute_capacity_reservation_group</text><line style="stroke:#000D19;stroke-width:0.5;" x1="8" x2="706" y1="699.9291" y2="699.9291"/><text fill="#D9B8FF" font-family="sans-serif" font-size="14" font-weight="bold" lengthAdjust="spacing" textLength="172" x="18" y="721.9242">capacity_reservations</text><text fill="#D9B8FF" font-family="sans-serif" font-size="14" lengthAdjust="spacing" textLength="58" x="190" y="721.9242">: string[]</text><text fill="#D9B8FF" font-family="sans-serif" font-size="14" font-weight="bold" lengthAdjust="spacing" textLength="263" x="18" y="748.2211">reservation_group_instance_view</text><text fill="#D9B8FF" font-family="sans-serif" font-size="14" lengthAdjust="spacing" textLength="415" x="281" y="748.2211">: azure_compute_capacity_reservation_group_instance_view</text><text fill="#D9B8FF" font-family="sans-serif" font-size="14" font-weight="bold" lengthAdjust="spacing" textLength="223" x="18" y="774.5179">virtual_machines_associated</text><text fill="#D9B8FF" font-family="sans-serif" font-size="14" lengthAdjust="spacing" textLength="58" x="241" y="774.5179">: string[]</text></g><!--class azure_compute_capacity_reservation_group_instance_view--><g id="elem_azure_compute_capacity_reservation_group_instance_view"><rect codeLine="28" fill="#3D176E" height="74.0859" id="azure_compute_capacity_reservation_group_instance_view" rx="2.5" ry="2.5" style="stroke:#000D19;stroke-width:0.5;" width="536" x="89" y="846.82"/><ellipse cx="104" cy="866.7145" fill="#ADD1B2" rx="11" ry="11" style="stroke:#181818;stroke-width:1.0;"/><path d="M106.9688,872.3552 Q106.3906,872.652 105.75,872.7927 Q105.1094,872.9489 104.4063,872.9489 Q101.9063,872.9489 100.5781,871.3083 Q99.2656,869.652 99.2656,866.527 Q99.2656,863.402 100.5781,861.7458 Q101.9063,860.0895 104.4063,860.0895 Q105.1094,860.0895 105.75,860.2458 Q106.4063,860.402 106.9688,860.6989 L106.9688,863.4177 Q106.3438,862.8395 105.75,862.5739 Q105.1563,862.2927 104.5313,862.2927 Q103.1875,862.2927 102.5,863.3708 Q101.8125,864.4333 101.8125,866.527 Q101.8125,868.6208 102.5,869.6989 Q103.1875,870.7614 104.5313,870.7614 Q105.1563,870.7614 105.75,870.4958 Q106.3438,870.2145 106.9688,869.6364 L106.9688,872.3552 Z " fill="#000000"/><text fill="#D9B8FF" font-family="Helvetica" font-size="17" lengthAdjust="spacing" textLength="494" x="123" y="872.5998">azure_compute_capacity_reservation_group_instance_view</text><line style="stroke:#000D19;stroke-width:0.5;" x1="90" x2="624" y1="886.6091" y2="886.6091"/><text fill="#D9B8FF" font-family="sans-serif" font-size="14" font-weight="bold" lengthAdjust="spacing" textLength="172" x="100" y="908.6042">capacity_reservations</text><text fill="#D9B8FF" font-family="sans-serif" font-size="14" lengthAdjust="spacing" textLength="58" x="272" y="908.6042">: string[]</text></g><!--class microsoft_resource--><g id="elem_microsoft_resource"><rect codeLine="31" fill="#3D176E" height="100.3828" id="microsoft_resource" rx="2.5" ry="2.5" style="stroke:#000D19;stroke-width:0.5;" width="214" x="250" y="438.76"/><ellipse cx="271.3" cy="458.6545" fill="#ADD1B2" rx="11" ry="11" style="stroke:#181818;stroke-width:1.0;"/><path d="M274.2688,464.2952 Q273.6906,464.592 273.05,464.7327 Q272.4094,464.8889 271.7063,464.8889 Q269.2063,464.8889 267.8781,463.2483 Q266.5656,461.592 266.5656,458.467 Q266.5656,455.342 267.8781,453.6858 Q269.2063,452.0295 271.7063,452.0295 Q272.4094,452.0295 273.05,452.1858 Q273.7063,452.342 274.2688,452.6389 L274.2688,455.3577 Q273.6438,454.7795 273.05,454.5139 Q272.4563,454.2327 271.8313,454.2327 Q270.4875,454.2327 269.8,455.3108 Q269.1125,456.3733 269.1125,458.467 Q269.1125,460.5608 269.8,461.6389 Q270.4875,462.7014 271.8313,462.7014 Q272.4563,462.7014 273.05,462.4358 Q273.6438,462.1545 274.2688,461.5764 L274.2688,464.2952 Z " fill="#000000"/><text fill="#D9B8FF" font-family="Helvetica" font-size="17" lengthAdjust="spacing" textLength="158" x="291.7" y="464.5398">microsoft_resource</text><line style="stroke:#000D19;stroke-width:0.5;" x1="251" x2="463" y1="478.5491" y2="478.5491"/><text fill="#D9B8FF" font-family="sans-serif" font-size="14" font-weight="bold" lengthAdjust="spacing" textLength="35" x="261" y="500.5442">etag</text><text fill="#D9B8FF" font-family="sans-serif" font-size="14" lengthAdjust="spacing" textLength="48" x="296" y="500.5442">: string</text><text fill="#D9B8FF" font-family="sans-serif" font-size="14" font-weight="bold" lengthAdjust="spacing" textLength="144" x="261" y="526.8411">provisioning_state</text><text fill="#D9B8FF" font-family="sans-serif" font-size="14" lengthAdjust="spacing" textLength="48" x="405" y="526.8411">: string</text></g><!--class resource--><g id="elem_resource"><rect codeLine="35" fill="#3D176E" height="310.7578" id="resource" rx="2.5" ry="2.5" style="stroke:#000D19;stroke-width:0.5;" width="227" x="243.5" y="7"/><ellipse cx="312.25" cy="26.8945" fill="#ADD1B2" rx="11" ry="11" style="stroke:#181818;stroke-width:1.0;"/><path d="M315.2188,32.5352 Q314.6406,32.832 314,32.9727 Q313.3594,33.1289 312.6563,33.1289 Q310.1563,33.1289 308.8281,31.4883 Q307.5156,29.832 307.5156,26.707 Q307.5156,23.582 308.8281,21.9258 Q310.1563,20.2695 312.6563,20.2695 Q313.3594,20.2695 314,20.4258 Q314.6563,20.582 315.2188,20.8789 L315.2188,23.5977 Q314.5938,23.0195 314,22.7539 Q313.4063,22.4727 312.7813,22.4727 Q311.4375,22.4727 310.75,23.5508 Q310.0625,24.6133 310.0625,26.707 Q310.0625,28.8008 310.75,29.8789 Q311.4375,30.9414 312.7813,30.9414 Q313.4063,30.9414 314,30.6758 Q314.5938,30.3945 315.2188,29.8164 L315.2188,32.5352 Z " fill="#000000"/><text fill="#D9B8FF" font-family="Helvetica" font-size="17" lengthAdjust="spacing" textLength="71" x="337.75" y="32.7798">resource</text><line style="stroke:#000D19;stroke-width:0.5;" x1="244.5" x2="469.5" y1="46.7891" y2="46.7891"/><text fill="#D9B8FF" font-family="sans-serif" font-size="14" font-weight="bold" lengthAdjust="spacing" textLength="29" x="254.5" y="68.7842">age</text><text fill="#D9B8FF" font-family="sans-serif" font-size="14" lengthAdjust="spacing" textLength="66" x="283.5" y="68.7842">: duration</text><text fill="#D9B8FF" font-family="sans-serif" font-size="14" font-weight="bold" lengthAdjust="spacing" textLength="43" x="254.5" y="95.0811">atime</text><text fill="#D9B8FF" font-family="sans-serif" font-size="14" lengthAdjust="spacing" textLength="70" x="297.5" y="95.0811">: datetime</text><text fill="#D9B8FF" font-family="sans-serif" font-size="14" font-weight="bold" lengthAdjust="spacing" textLength="43" x="254.5" y="121.3779">ctime</text><text fill="#D9B8FF" font-family="sans-serif" font-size="14" lengthAdjust="spacing" textLength="70" x="297.5" y="121.3779">: datetime</text><text fill="#D9B8FF" font-family="sans-serif" font-size="14" font-weight="bold" lengthAdjust="spacing" textLength="14" x="254.5" y="147.6748">id</text><text fill="#D9B8FF" font-family="sans-serif" font-size="14" lengthAdjust="spacing" textLength="48" x="268.5" y="147.6748">: string</text><text fill="#D9B8FF" font-family="sans-serif" font-size="14" font-weight="bold" lengthAdjust="spacing" textLength="33" x="254.5" y="173.9717">kind</text><text fill="#D9B8FF" font-family="sans-serif" font-size="14" lengthAdjust="spacing" textLength="48" x="287.5" y="173.9717">: string</text><text fill="#D9B8FF" font-family="sans-serif" font-size="14" font-weight="bold" lengthAdjust="spacing" textLength="90" x="254.5" y="200.2686">last_access</text><text fill="#D9B8FF" font-family="sans-serif" font-size="14" lengthAdjust="spacing" textLength="66" x="344.5" y="200.2686">: duration</text><text fill="#D9B8FF" font-family="sans-serif" font-size="14" font-weight="bold" lengthAdjust="spacing" textLength="90" x="254.5" y="226.5654">last_update</text><text fill="#D9B8FF" font-family="sans-serif" font-size="14" lengthAdjust="spacing" textLength="66" x="344.5" y="226.5654">: duration</text><text fill="#D9B8FF" font-family="sans-serif" font-size="14" font-weight="bold" lengthAdjust="spacing" textLength="48" x="254.5" y="252.8623">mtime</text><text fill="#D9B8FF" font-family="sans-serif" font-size="14" lengthAdjust="spacing" textLength="70" x="302.5" y="252.8623">: datetime</text><text fill="#D9B8FF" font-family="sans-serif" font-size="14" font-weight="bold" lengthAdjust="spacing" textLength="43" x="254.5" y="279.1592">name</text><text fill="#D9B8FF" font-family="sans-serif" font-size="14" lengthAdjust="spacing" textLength="48" x="297.5" y="279.1592">: string</text><text fill="#D9B8FF" font-family="sans-serif" font-size="14" font-weight="bold" lengthAdjust="spacing" textLength="34" x="254.5" y="305.4561">tags</text><text fill="#D9B8FF" font-family="sans-serif" font-size="14" lengthAdjust="spacing" textLength="171" x="288.5" y="305.4561">: dictionary[string, string]</text></g><!--link azure_compute_capacity_reservation_group to azure_compute_capacity_reservation_group_instance_view--><g id="link_azure_compute_capacity_reservation_group_azure_compute_capacity_reservation_group_instance_view"><path codeLine="47" d="M357,787.08 C357,807.31 357,823.06 357,840.71 " fill="none" id="azure_compute_capacity_reservation_group-to-azure_compute_capacity_reservation_group_instance_view" style="stroke:#FFAF37;stroke-width:2.0;"/><polygon fill="#FFAF37" points="357,846.71,361,837.71,357,841.71,353,837.71,357,846.71" style="stroke:#FFAF37;stroke-width:2.0;"/></g><!--reverse link microsoft_resource to azure_compute_capacity_reservation_group--><g id="link_microsoft_resource_azure_compute_capacity_reservation_group"><path codeLine="48" d="M357,557.55 C357,592.63 357,621.94 357,659.66 " fill="none" id="microsoft_resource-backto-azure_compute_capacity_reservation_group" style="stroke:#FFAF37;stroke-width:2.0;"/><polygon fill="none" points="357,539.55,351,557.55,363,557.55,357,539.55" style="stroke:#FFAF37;stroke-width:2.0;"/></g><!--reverse link resource to microsoft_resource--><g id="link_resource_microsoft_resource"><path codeLine="49" d="M357,336.06 C357,379.66 357,405.99 357,438.43 " fill="none" id="resource-backto-microsoft_resource" style="stroke:#FFAF37;stroke-width:2.0;"/><polygon fill="none" points="357,318.06,351,336.06,363,336.06,357,318.06" style="stroke:#FFAF37;stroke-width:2.0;"/></g><!--SRC=[dPHFQzj04CNl_XI2t4m5TaFhk9H2QYZj9PIcjr2MyUx8NgpT5RCZ6QVjT- -kPAVwbyJ9JPhvpNjlLeksMc62fk13Oj2iaVp4xxGjWC0arqHkltAve-GYoo2xNFIRNvpbPu4RC9XynRn2rXBwnC-jbZkBtYTlMwtF87SRSgLLZJmJM1zQQBb5hNBm_fgPzBfaR8LHo_LLblN9lkZ5fPeltkC0SwIGZiXiDbFpPHzvrkh9lH-8MtsFoRnzQ3UESH1pO55JJwQCH2laOD5J_z6Ctq4fRJV9krRjHvE9B5AdVhi5vVQHpY3tRHlFIEZuKE1gi1KkhrIs68M_FGPFP3ow1EvBGY6TAS9d5n8Aa9eFWj0ZLS3QMH6dY-JtP3eTQ_lfz4Fmev3vxbTW1fD2MyzW9OfAupxIvtfs9uDsfObBo8K1kTNXeekmWPCQ65KdnTyNBjSrEdFLaudHafnt6KVKbIIn5a26pNy-50fobVP19hoAOCVOQf_4EXAmgH5LKcqVAwnDKmlZyJac7QbfrR4Ezw9R25uiGChmh-Wvr9soKCTuhOuPyR5Wi2CSbcuKjOnZG8UxflVcoCHpE_lEfUcdrrwMaQ_oyK-QfcVhJNfpGy79Fm00]--></g></svg>

<svg xmlns="http://www.w3.org/2000/svg" width="714" height="927" viewBox="0 0 714 927"><rect width="700" height="126.68" x="7" y="660.14" fill="#3D176E" rx="2.5" ry="2.5" style="stroke:#000d19;stroke-width:.5"/><circle cx="164.75" cy="680.034" r="11" fill="#ADD1B2" style="stroke:#181818;stroke-width:1"/><path d="M167.719 685.675q-.578.297-1.219.438-.64.156-1.344.156-2.5 0-3.828-1.64-1.312-1.657-1.312-4.782t1.312-4.781q1.328-1.657 3.828-1.657.703 0 1.344.157.656.156 1.219.453v2.719q-.625-.579-1.219-.844-.594-.281-1.219-.281-1.344 0-2.031 1.078-.687 1.062-.687 3.156t.687 3.172q.688 1.062 2.031 1.062.625 0 1.219-.265.594-.282 1.219-.86z"/><text x="190.25" y="685.92" fill="#D9B8FF" font-family="Helvetica" font-size="17" textLength="366">azure_compute_capacity_reservation_group</text><path d="M8 699.929h698" style="stroke:#000d19;stroke-width:.5"/><text x="18" y="721.924" fill="#D9B8FF" font-family="sans-serif" font-size="14" font-weight="bold" textLength="172">capacity_reservations</text><text x="190" y="721.924" fill="#D9B8FF" font-family="sans-serif" font-size="14" textLength="58">: string[]</text><text x="18" y="748.221" fill="#D9B8FF" font-family="sans-serif" font-size="14" font-weight="bold" textLength="263">reservation_group_instance_view</text><text x="281" y="748.221" fill="#D9B8FF" font-family="sans-serif" font-size="14" textLength="415">: azure_compute_capacity_reservation_group_instance_view</text><text x="18" y="774.518" fill="#D9B8FF" font-family="sans-serif" font-size="14" font-weight="bold" textLength="223">virtual_machines_associated</text><text x="241" y="774.518" fill="#D9B8FF" font-family="sans-serif" font-size="14" textLength="58">: string[]</text><rect width="536" height="74.086" x="89" y="846.82" fill="#3D176E" rx="2.5" ry="2.5" style="stroke:#000d19;stroke-width:.5"/><circle cx="104" cy="866.715" r="11" fill="#ADD1B2" style="stroke:#181818;stroke-width:1"/><path d="M106.969 872.355q-.578.297-1.219.438-.64.156-1.344.156-2.5 0-3.828-1.64-1.312-1.657-1.312-4.782t1.312-4.781q1.328-1.656 3.828-1.656.703 0 1.344.156.656.156 1.219.453v2.719q-.625-.578-1.219-.844-.594-.281-1.219-.281-1.344 0-2.031 1.078-.687 1.062-.687 3.156t.687 3.172q.688 1.062 2.031 1.062.625 0 1.219-.265.594-.281 1.219-.86z"/><text x="123" y="872.6" fill="#D9B8FF" font-family="Helvetica" font-size="17" textLength="494">azure_compute_capacity_reservation_group_instance_view</text><path d="M90 886.609h534" style="stroke:#000d19;stroke-width:.5"/><text x="100" y="908.604" fill="#D9B8FF" font-family="sans-serif" font-size="14" font-weight="bold" textLength="172">capacity_reservations</text><text x="272" y="908.604" fill="#D9B8FF" font-family="sans-serif" font-size="14" textLength="58">: string[]</text><rect width="214" height="100.383" x="250" y="438.76" fill="#3D176E" rx="2.5" ry="2.5" style="stroke:#000d19;stroke-width:.5"/><circle cx="271.3" cy="458.654" r="11" fill="#ADD1B2" style="stroke:#181818;stroke-width:1"/><path d="M274.269 464.295q-.578.297-1.219.438-.64.156-1.344.156-2.5 0-3.828-1.64-1.312-1.657-1.312-4.782t1.312-4.781q1.328-1.656 3.828-1.656.703 0 1.344.156.656.156 1.219.453v2.719q-.625-.579-1.219-.844-.594-.281-1.219-.281-1.344 0-2.031 1.078-.687 1.062-.687 3.156t.687 3.172q.688 1.062 2.031 1.062.625 0 1.219-.265.594-.281 1.219-.86z"/><text x="291.7" y="464.54" fill="#D9B8FF" font-family="Helvetica" font-size="17" textLength="158">microsoft_resource</text><path d="M251 478.549h212" style="stroke:#000d19;stroke-width:.5"/><text x="261" y="500.544" fill="#D9B8FF" font-family="sans-serif" font-size="14" font-weight="bold" textLength="35">etag</text><text x="296" y="500.544" fill="#D9B8FF" font-family="sans-serif" font-size="14" textLength="48">: string</text><text x="261" y="526.841" fill="#D9B8FF" font-family="sans-serif" font-size="14" font-weight="bold" textLength="144">provisioning_state</text><text x="405" y="526.841" fill="#D9B8FF" font-family="sans-serif" font-size="14" textLength="48">: string</text><rect width="227" height="310.758" x="243.5" y="7" fill="#3D176E" rx="2.5" ry="2.5" style="stroke:#000d19;stroke-width:.5"/><circle cx="312.25" cy="26.895" r="11" fill="#ADD1B2" style="stroke:#181818;stroke-width:1"/><path d="M315.219 32.535q-.578.297-1.219.438-.64.156-1.344.156-2.5 0-3.828-1.64-1.312-1.657-1.312-4.782t1.312-4.781q1.328-1.656 3.828-1.656.703 0 1.344.156.656.156 1.219.453v2.719q-.625-.578-1.219-.844-.594-.281-1.219-.281-1.344 0-2.031 1.078-.687 1.062-.687 3.156t.687 3.172q.688 1.062 2.031 1.062.625 0 1.219-.265.594-.281 1.219-.86z"/><text x="337.75" y="32.78" fill="#D9B8FF" font-family="Helvetica" font-size="17" textLength="71">resource</text><path d="M244.5 46.789h225" style="stroke:#000d19;stroke-width:.5"/><text x="254.5" y="68.784" fill="#D9B8FF" font-family="sans-serif" font-size="14" font-weight="bold" textLength="29">age</text><text x="283.5" y="68.784" fill="#D9B8FF" font-family="sans-serif" font-size="14" textLength="66">: duration</text><text x="254.5" y="95.081" fill="#D9B8FF" font-family="sans-serif" font-size="14" font-weight="bold" textLength="43">atime</text><text x="297.5" y="95.081" fill="#D9B8FF" font-family="sans-serif" font-size="14" textLength="70">: datetime</text><text x="254.5" y="121.378" fill="#D9B8FF" font-family="sans-serif" font-size="14" font-weight="bold" textLength="43">ctime</text><text x="297.5" y="121.378" fill="#D9B8FF" font-family="sans-serif" font-size="14" textLength="70">: datetime</text><text x="254.5" y="147.675" fill="#D9B8FF" font-family="sans-serif" font-size="14" font-weight="bold" textLength="14">id</text><text x="268.5" y="147.675" fill="#D9B8FF" font-family="sans-serif" font-size="14" textLength="48">: string</text><text x="254.5" y="173.972" fill="#D9B8FF" font-family="sans-serif" font-size="14" font-weight="bold" textLength="33">kind</text><text x="287.5" y="173.972" fill="#D9B8FF" font-family="sans-serif" font-size="14" textLength="48">: string</text><text x="254.5" y="200.269" fill="#D9B8FF" font-family="sans-serif" font-size="14" font-weight="bold" textLength="90">last_access</text><text x="344.5" y="200.269" fill="#D9B8FF" font-family="sans-serif" font-size="14" textLength="66">: duration</text><text x="254.5" y="226.565" fill="#D9B8FF" font-family="sans-serif" font-size="14" font-weight="bold" textLength="90">last_update</text><text x="344.5" y="226.565" fill="#D9B8FF" font-family="sans-serif" font-size="14" textLength="66">: duration</text><text x="254.5" y="252.862" fill="#D9B8FF" font-family="sans-serif" font-size="14" font-weight="bold" textLength="48">mtime</text><text x="302.5" y="252.862" fill="#D9B8FF" font-family="sans-serif" font-size="14" textLength="70">: datetime</text><text x="254.5" y="279.159" fill="#D9B8FF" font-family="sans-serif" font-size="14" font-weight="bold" textLength="43">name</text><text x="297.5" y="279.159" fill="#D9B8FF" font-family="sans-serif" font-size="14" textLength="48">: string</text><text x="254.5" y="305.456" fill="#D9B8FF" font-family="sans-serif" font-size="14" font-weight="bold" textLength="34">tags</text><text x="288.5" y="305.456" fill="#D9B8FF" font-family="sans-serif" font-size="14" textLength="171">: dictionary[string, string]</text><path fill="none" d="M357 787.08v53.63" style="stroke:#ffaf37;stroke-width:2"/><path fill="#FFAF37" d="m357 846.71 4-9-4 4-4-4z" style="stroke:#ffaf37;stroke-width:2"/><path fill="none" d="M357 557.55v102.11m0-120.11-6 18h12zm0-203.49v102.37m0-120.37-6 18h12z" style="stroke:#ffaf37;stroke-width:2"/></svg>
